public/doodles/footer.svg

<svg viewBox="0 0 82 116" fill="none" xmlns="http://www.w3.org/2000/svg">
                      <path d="M40.9136 28.4802C38.6125 29.5352 33.0829 31.3225 34.7484 34.9309C35.1693 35.8429 36.1429 36.4252 37.1409 36.0143C38.4049 35.4938 40.0304 30.3573 38.3317 30.7488C36.8639 31.0871 35.0701 36.4758 36.6001 33.9259C37.5546 32.3351 38.7953 26.323 36.8168 30.7743" stroke="currentColor" stroke-width="2.02391" stroke-linecap="round"></path>
                      <path d="M42.9456 36.9027C44.3792 36.3673 49.6834 35.2593 50.3598 33.3597C50.5605 32.796 49.8938 32.4664 49.4858 32.7516C48.0087 33.7839 47.2313 36.1686 47.2681 37.9041C47.3042 39.6044 55.9271 32.1709 49.1726 33.1667" stroke="currentColor" stroke-width="2.02391" stroke-linecap="round"></path>
                      <path d="M41.7985 47.6521C41.6902 47.8063 35.3345 56.2927 39.6554 54.3414C40.9989 53.7347 41.6044 52.7406 41.6674 51.3554" stroke="currentColor" stroke-width="2.02391" stroke-linecap="round"></path>
                      <path d="M20.8558 49.8479C20.4557 50.592 16.8103 55.6835 17.8187 56.792C18.4663 57.504 19.0044 56.6707 19.166 56.0692C19.3577 55.3561 19.7255 46.685 17.247 49.3345C15.0466 51.6865 16.0884 58.799 18.9366 53.7842C20.743 50.6037 21.6121 44.1163 16.464 47.4227" stroke="currentColor" stroke-width="2.02391" stroke-linecap="round"></path>
                      <path d="M23.8055 70.1341C23.3468 69.5574 19.5469 63.391 18.3832 65.4276C17.5711 66.8486 17.3894 68.5886 17.2706 70.1869C17.1604 71.6697 18.3288 76.9006 19.949 73.3858C20.3661 72.481 21.8368 65.687 20.0801 65.4767C18.1319 65.2436 18.8076 71.2171 19.6431 72.1987" stroke="currentColor" stroke-width="2.02391" stroke-linecap="round"></path>
                      <path d="M36.7185 70.9206C36.7242 70.8839 37.8752 62.2372 36.8168 65.4913C36.3146 67.0355 36.8205 68.6071 37.1773 70.1013" stroke="currentColor" stroke-width="2.02391" stroke-linecap="round"></path>
                      <path d="M58.4805 49.979C61.5056 50.1328 66.194 51.2055 66.5976 47.1023C66.7537 45.516 66.3378 45.2517 64.9698 45.5219" stroke="currentColor" stroke-width="2.02391" stroke-linecap="round"></path>
                      <path d="M40.8481 81.1784C41.4524 82.4987 43.3484 88.7048 44.821 84.9618C45.5495 83.1101 45.913 81.2069 45.8552 79.2212C45.7755 76.4816 45.5696 80.1763 45.8297 81.2767" stroke="currentColor" stroke-width="2.02391" stroke-linecap="round"></path>
                      <path d="M69.1649 42.7035C68.0946 43.4338 61.8175 46.2398 63.7572 48.5334C64.9309 49.9213 67.1839 48.5321 68.189 47.745C73.8051 43.3471 67.4227 41.8491 63.9357 46.8547C61.52 50.3223 63.361 52.4855 65.385 48.5789C66.9483 45.5614 65.4228 43.1846 64.5438 46.9639" stroke="currentColor" stroke-width="2.02391" stroke-linecap="round"></path>
                      <path d="M64.6093 63.6451C63.2862 65.1565 58.6991 68.8307 59.533 71.445C60.0018 72.9149 61.9375 70.3153 62.1148 69.9739C62.548 69.1401 65.4869 58.203 61.7981 60.5536C60.9437 61.098 58.4874 65.3939 59.7861 66.3052C61.6093 67.5845 63.2849 63.5303 63.2656 62.2359" stroke="currentColor" stroke-width="2.02391" stroke-linecap="round"></path>
                      <path d="M41.1758 85.4716C44.307 67.168 37.1668 84.7918 39.3222 85.3187C41.756 85.9136 43.1564 76.5476 40.6842 81.0801" stroke="currentColor" stroke-width="2.02391" stroke-linecap="round"></path>
                      <path d="M3.45267 96.7454C4.88089 92.9142 7.28891 84.4622 2.79718 91.469" stroke="currentColor" stroke-width="2.02391" stroke-linecap="round"></path>
                      <path d="M33.9982 109.527C33.8334 109.716 29.7904 114.791 29.9907 114.779C31.1662 114.711 31.9374 112.033 32.2357 111.198C32.4556 110.582 34.145 104.644 32.8949 106.177C31.5657 107.806 31.0493 111.572 31.6421 113.574C32.6712 117.048 35.337 111.072 35.5022 110.135C36.2132 106.102 33.3296 107.636 32.2139 110.098C31.1739 112.393 31.1263 116.486 33.9218 112.76C34.4469 112.06 37.4005 104.62 34.7575 105.947C33.1578 106.75 30.9528 112.873 34.2276 110.346" stroke="currentColor" stroke-width="2.02391" stroke-linecap="round"></path>
                      <path d="M47.7634 102.12C47.8551 102.053 56.4665 96.2468 53.04 95.7112C50.268 95.2779 46.715 98.9112 44.6826 100.383" stroke="currentColor" stroke-width="2.02391" stroke-linecap="round"></path>
                      <path d="M21.118 97.0731C21.1278 97.0367 23.2876 87.9441 23.2702 87.9478C22.5493 88.0978 22.0426 90.9245 21.9191 91.4435C21.8259 91.8353 20.8052 97.1108 22.2359 96.1482C24.0565 94.9232 27.7053 85.9551 22.8222 92.0589" stroke="currentColor" stroke-width="2.02391" stroke-linecap="round"></path>
                      <path d="M5.48471 78.3272C5.35434 77.133 5.6374 66.3898 3.35437 71.4413C3.02264 72.1753 0.740519 78.3808 2.84091 77.4369C6.30293 75.881 7.7934 66.2975 3.41991 73.9685" stroke="currentColor" stroke-width="2.02391" stroke-linecap="round"></path>
                      <path d="M70.3448 78.1634C70.4372 78.0525 75.789 71.0886 72.7191 73.5861C71.1664 74.8494 70.2969 76.9205 69.5947 78.735C68.696 81.0575 69.1635 81.7956 69.9843 79.0154" stroke="currentColor" stroke-width="2.02391" stroke-linecap="round"></path>
                      <path d="M52.8106 2C52.3067 2.45456 43.7044 10.5915 48.1385 11.169C50.05 11.418 51.099 9.05256 51.8857 7.68787C54.9538 2.36567 49.3103 5.94867 48.9324 9.47942C48.8331 10.4067 49.9727 11.0594 50.5456 10.184C51.3463 8.96051 52.5669 6.339 52.2426 4.81481C52.1175 4.22715 51.3814 5.48716 51.6108 6.02739C52.2454 7.52243 53.9747 5.11719 54.2527 4.58903" stroke="currentColor" stroke-width="2.02391" stroke-linecap="round"></path>
                      <path d="M25.7719 24.5803C25.5507 24.773 19.8081 29.2641 20.7556 29.924C21.4813 30.4294 22.8949 28.1653 23.1354 27.8139C23.5826 27.1606 25.398 23.1097 25.1164 23.8265" stroke="currentColor" stroke-width="2.02391" stroke-linecap="round"></path>
                      <path d="M62.3479 19.5661C61.8861 20.1325 56.8552 24.9008 58.7609 25.7747C59.661 26.1874 60.4302 25.3281 60.9605 24.7041C61.4628 24.113 63.1351 20.2936 61.5322 20.196C58.4633 20.0092 59.6601 28.0767 61.8017 23.4806C63.8277 19.1325 59.2879 19.3404 60.2467 22.9744C60.6967 24.68 61.3613 21.3659 61.3137 20.8369C61.0332 17.7234 59.145 19.849 58.9066 21.6963" stroke="currentColor" stroke-width="2.02391" stroke-linecap="round"></path>
                      <path d="M79.9149 34.2809C78.0605 35.6911 73.2827 40.4465 75.4849 39.6866C76.9745 39.1726 78.2106 35.3756 78.5238 34.0242C79.4033 30.23 74.5853 36.3674 76.8687 38.1518C79.9221 40.5378 81.5204 28.681 77.7445 34.4266C77.1649 35.3086 74.8685 40.5237 76.9106 40.6242C79.5072 40.7522 80.0337 35.9473 80.0788 34.2809" stroke="currentColor" stroke-width="2.02391" stroke-linecap="round"></path>
                      <path d="M21.0524 47.1278C20.9594 47.2376 15.5052 54.2263 16.6752 54.0391C17.6681 53.8803 18.0732 51.4324 18.2811 50.6891C18.6221 49.4703 19.1969 43.5417 17.704 47.4846C17.0849 49.1197 17.9379 53.0714 18.578 50.101C18.7821 49.1537 19.1861 46.7708 17.9971 46.2247C16.5133 45.5432 16.684 50.0133 16.6607 50.6672" stroke="currentColor" stroke-width="2.02391" stroke-linecap="round"></path>
                    </svg>

<svg viewBox="0 0 82 116" fill="none" xmlns="http://www.w3.org/2000/svg">
    <path d="M40.914 28.48c-2.302 1.055-7.831 2.843-6.166 6.45.421.913 1.395 1.495 2.393 1.084 1.264-.52 2.89-5.657 1.19-5.265-1.467.338-3.26 5.727-1.73 3.177.954-1.59 2.194-7.603.216-3.152M42.946 36.903c1.433-.536 6.737-1.644 7.414-3.543.2-.564-.466-.894-.874-.608-1.477 1.032-2.255 3.417-2.218 5.152.036 1.7 8.66-5.733 1.905-4.737M41.798 47.652c-.108.154-6.464 8.64-2.143 6.69 1.344-.607 1.95-1.601 2.012-2.987M20.856 49.848c-.4.744-4.046 5.836-3.037 6.944.647.712 1.185-.121 1.347-.723.192-.713.56-9.384-1.919-6.735-2.2 2.352-1.159 9.465 1.69 4.45 1.806-3.18 2.675-9.668-2.473-6.361M23.805 70.134c-.458-.577-4.258-6.743-5.422-4.706-.812 1.42-.994 3.16-1.112 4.759-.11 1.483 1.058 6.714 2.678 3.199.417-.905 1.888-7.699.131-7.91-1.948-.232-1.272 5.741-.437 6.723M36.718 70.92c.006-.036 1.157-8.683.099-5.429-.502 1.544.004 3.116.36 4.61M58.48 49.979c3.026.154 7.714 1.227 8.118-2.877.156-1.586-.26-1.85-1.628-1.58M40.848 81.178c.604 1.32 2.5 7.527 3.973 3.784.729-1.852 1.092-3.755 1.034-5.74-.08-2.74-.285.954-.025 2.055" stroke="currentColor" stroke-width="2.024" stroke-linecap="round"/>
    <path d="M69.165 42.703c-1.07.73-7.348 3.537-5.408 5.83 1.174 1.388 3.427 0 4.432-.788 5.616-4.398-.766-5.896-4.253-.89-2.416 3.467-.575 5.63 1.449 1.724 1.563-3.018.038-5.394-.841-1.615M64.61 63.645c-1.324 1.511-5.91 5.186-5.077 7.8.469 1.47 2.404-1.13 2.582-1.471.433-.834 3.372-11.771-.317-9.42-.854.544-3.31 4.84-2.012 5.751 1.823 1.28 3.499-2.775 3.48-4.07M41.176 85.472c3.131-18.304-4.01-.68-1.854-.153 2.434.595 3.834-8.771 1.362-4.239M3.453 96.745c1.428-3.83 3.836-12.283-.656-5.276M33.998 109.527c-.165.189-4.208 5.264-4.007 5.252 1.175-.068 1.946-2.746 2.245-3.581.22-.616 1.909-6.554.659-5.021-1.33 1.629-1.846 5.395-1.253 7.397 1.03 3.474 3.695-2.502 3.86-3.439.711-4.033-2.172-2.499-3.288-.037-1.04 2.295-1.088 6.388 1.708 2.662.525-.7 3.479-8.14.836-6.813-1.6.803-3.805 6.926-.53 4.399M47.763 102.12c.092-.067 8.704-5.873 5.277-6.409-2.772-.433-6.325 3.2-8.357 4.672M21.118 97.073c.01-.036 2.17-9.129 2.152-9.125-.72.15-1.227 2.977-1.35 3.496-.094.391-1.115 5.667.316 4.704 1.82-1.225 5.47-10.193.586-4.09M5.485 78.327c-.13-1.194.152-11.937-2.13-6.886-.332.734-2.614 6.94-.514 5.996 3.462-1.556 4.952-11.14.579-3.468M70.345 78.163c.092-.11 5.444-7.074 2.374-4.577-1.553 1.263-2.422 3.335-3.124 5.149-.899 2.323-.431 3.06.39.28M52.81 2c-.503.455-9.106 8.591-4.672 9.169 1.912.249 2.961-2.116 3.748-3.481 3.068-5.322-2.576-1.74-2.954 1.791-.099.928 1.04 1.58 1.614.705.8-1.223 2.02-3.845 1.697-5.37-.126-.587-.862.673-.632 1.213.634 1.495 2.364-.91 2.642-1.438M25.772 24.58c-.221.193-5.964 4.684-5.016 5.344.725.505 2.139-1.759 2.38-2.11.447-.653 2.262-4.704 1.98-3.988M62.348 19.566c-.462.567-5.493 5.335-3.587 6.209.9.412 1.67-.447 2.2-1.07.502-.592 2.174-4.411.571-4.509-3.069-.187-1.872 7.88.27 3.285 2.026-4.349-2.514-4.14-1.555-.507.45 1.706 1.114-1.608 1.067-2.137-.28-3.114-2.169-.988-2.407.86M79.915 34.28c-1.855 1.411-6.632 6.166-4.43 5.407 1.49-.514 2.726-4.311 3.039-5.663.88-3.794-3.939 2.343-1.655 4.128 3.053 2.386 4.651-9.471.876-3.725-.58.882-2.877 6.097-.834 6.197 2.596.128 3.123-4.677 3.168-6.343M21.052 47.128c-.093.11-5.547 7.098-4.377 6.911.993-.159 1.398-2.607 1.606-3.35.341-1.219.916-7.147-.577-3.204-.62 1.635.234 5.586.874 2.616.204-.947.608-3.33-.58-3.876-1.485-.682-1.314 3.788-1.337 4.442" stroke="currentColor" stroke-width="2.024" stroke-linecap="round"/>
</svg>
